dapp/src/images/discord-icon-gray.svg

<svg fill="none" height="17" viewBox="0 0 23 17" width="23" xmlns="http://www.w3.org/2000/svg"><path d="m19.5 2.74121s-2.3-1.799999-5-1.999999l-.2.499999c2.5.6 3.6 1.4 4.7 2.5-2-1-4-2-7.5-2-3.6 0-5.5 1-7.5 2 1.2-1 2.5-2 4.7-2.5l-.2-.499999c-2.8.299999-5 1.999999-5 1.999999s-2.5 3.7-3 10.99999c2.6 2.9 6.5 3 6.5 3l.8-1.1c-1.3-.5-2.9-1.4-4.3-2.9 1.6 1.2 4.1 2.5 8 2.5s6.4-1.3 8-2.5c-1.4 1.6-2.9 2.4-4.3 2.9l.8 1.1s3.9 0 6.5-3c-.5-7.29999-3-10.99999-3-10.99999zm-11.3 8.99999c-1 0-1.8-.9-1.8-1.99999 0-1.1.8-2 1.8-2s1.8.9 1.8 2c0 1.09999-.8 1.99999-1.8 1.99999zm6.6 0c-1 0-1.8-.9-1.8-1.99999 0-1.1.8-2 1.8-2s1.8.9 1.8 2c-.1 1.09999-.9 1.99999-1.8 1.99999z" fill="#9ea2ab"/></svg>

<svg width="23" height="17" viewBox="0 0 23 17" fill="none" xmlns="http://www.w3.org/2000/svg">
<path d="M19.5 2.74121C19.5 2.74121 17.2 0.941211 14.5 0.741211L14.3 1.24121C16.8 1.84121 17.9 2.64121 19 3.74121C17 2.74121 15 1.74121 11.5 1.74121C7.9 1.74121 6 2.74121 4 3.74121C5.2 2.74121 6.5 1.74121 8.7 1.24121L8.5 0.741211C5.7 1.04121 3.5 2.74121 3.5 2.74121C3.5 2.74121 1 6.44121 0.5 13.7412C3.1 16.6412 7 16.7412 7 16.7412L7.8 15.6412C6.5 15.1412 4.9 14.2412 3.5 12.7412C5.1 13.9412 7.6 15.2412 11.5 15.2412C15.4 15.2412 17.9 13.9412 19.5 12.7412C18.1 14.3412 16.6 15.1412 15.2 15.6412L16 16.7412C16 16.7412 19.9 16.7412 22.5 13.7412C22 6.44121 19.5 2.74121 19.5 2.74121ZM8.2 11.7412C7.2 11.7412 6.4 10.8412 6.4 9.74121C6.4 8.64121 7.2 7.74121 8.2 7.74121C9.2 7.74121 10 8.64121 10 9.74121C10 10.8412 9.2 11.7412 8.2 11.7412ZM14.8 11.7412C13.8 11.7412 13 10.8412 13 9.74121C13 8.64121 13.8 7.74121 14.8 7.74121C15.8 7.74121 16.6 8.64121 16.6 9.74121C16.5 10.8412 15.7 11.7412 14.8 11.7412Z" fill="#9EA2AB"/>
</svg>
